packages/admin/admin-icons/icons/arrow-left.svg

<svg xmlns="http://www.w3.org/2000/svg" width="16" height="16" viewBox="0 0 16 16"><path fill="#242424" fill-rule="evenodd" d="M2.14744899,6.35355339 C1.97388263,6.17998704 1.95459748,5.91056264 2.08959354,5.7156945 L2.14744899,5.64644661 L5.14744899,2.64644661 C5.34271113,2.45118446 5.65929362,2.45118446 5.85455577,2.64644661 C6.02812212,2.82001296 6.04740727,3.08943736 5.91241122,3.2843055 L5.85455577,3.35355339 L2.85455577,6.35355339 C2.65929362,6.54881554 2.34271113,6.54881554 2.14744899,6.35355339 Z M5.21669687,13.4114088 L5.14744899,13.3535534 L0.147448987,8.35355339 C-0.146534615,8.05956979 0.0281969029,7.57081573 0.414970352,7.50695512 L0.501002377,7.5 L15.5010024,7.5 C15.7771448,7.5 16.0010024,7.72385763 16.0010024,8 C16.0010024,8.24545989 15.8241272,8.44960837 15.590878,8.49194433 L15.5010024,8.5 L1.70800238,8.5 L5.85455577,12.6464466 C6.02812212,12.820013 6.04740727,13.0894374 5.91241122,13.2843055 L5.85455577,13.3535534 C5.68098942,13.5271197 5.41156501,13.5464049 5.21669687,13.4114088 Z"/></svg>

<svg width="16" height="16" fill="none" viewBox="0 0 16 16">
  <path fill="#242424" fill-rule="evenodd" d="M2.147 6.354a.5.5 0 0 1-.058-.638l.058-.07 3-3a.5.5 0 0 1 .765.638l-.058.07-3 3a.5.5 0 0 1-.707 0Zm3.07 7.057-.07-.057-5-5a.5.5 0 0 1 .267-.847L.501 7.5h15a.5.5 0 0 1 .09.992l-.09.008H1.708l4.146 4.146a.5.5 0 0 1 .058.638l-.058.07a.5.5 0 0 1-.638.057Z" clip-rule="evenodd"/>
</svg>
